X: 302
T:Liverpool Reel #2, The
M:C|
L:1/8
C:Charlie Lennon
S:Mike McGoldrick, Brian Lennon, Michael O'Brien and Jim Higgins
R:reel
D:Charlie Lennon: Time for a Tune
Z:Devin McCabe
K:G
G2~G2 e2d2|GBdG E~A3|G2~G2 e2d2|FGAB cBcA|
!G2~G2 e2d2|GBdG E~A3|G2 (3Bcd cdeg|fgaf g3b|
!a~d3 d2bg|a~d3 ~g3b|a~d3 adgf|dggf ~g3b|
!a~d3 b~d3|a~d3 efg2|~a3f ~g3z|afge dBBA|
!:B2BA GBed|ABBA BGEG|B2BA GBeB|dBdB A2GA:|
!:BEED ~E3A|B~E3 AddA|BEED ~E3G|FDAF DEF2:|
